X:1
T: Alexander Dickie of Grahamstone
C:Bruce Shawyer
R:Reel
I:speed 232
K:A
M:4/4
L:1/16
|:A2B2c2d2 e4a4|e4c4 c8|d2c2B4 c2B2A4|B4E4 E8|
A2B2c2d2 e4a4|e4c4 c8|d2c2B4 c2B2A4|B4G4 A8|
e2d2c2d2 e4a4|e4a4 c'8|d2e2f2g2 a4f4|e4g4 b8|
e2d2c2d2 e4a4|c'4a4 e8|d'2c'2b2a2 g4e4|a4A4 A8:|
